X: 4190
T: CHORUS JIG
R: Jig
%R: jig
B: James Kerr "Merry Melodies" v.4 p.22 #190
Z: 2016 John Chambers <jc:trillian.mit.edu>
M: 6/8
L: 1/8
K: D
(uFG) |\
AFD DFD | vA2vG FED | AFD DFD | A3 ud2uB |\
AFD DFD | A2G FED | E2=c BAA | G3- G ::\
(eg) |\
fdd dgg | fdd dgg | fdd dff | a3 a2g |
fdd dgg | fdd d2f | e2d e2f | g3- g ::\
(eg) |\
fdf ece | ddc BAG | FED DFD | A3 ABc |\
d2B c2A | B2G F2D | E2=c BAB | G3- G :|

%%sep 1 1 500
%%sep 1 1 500

